public/library/honeypot-finance-icon-dark.svg

<svg width="46" height="46" viewBox="0 0 46 46" fill="none" xmlns="http://www.w3.org/2000/svg">
<path d="M45.2834 22.9986C45.2834 10.6916 35.3066 0.714844 22.9997 0.714844C10.6927 0.714844 0.715942 10.6916 0.715942 22.9986C0.715942 35.3055 10.6927 45.2823 22.9997 45.2823C35.3066 45.2823 45.2834 35.3055 45.2834 22.9986Z" fill="#83C2E9"/>
<path fill-rule="evenodd" clip-rule="evenodd" d="M16.8222 14.1987C16.8222 11.9812 18.6199 10.1836 20.8373 10.1836H25.1612C27.3787 10.1836 29.1763 11.9812 29.1763 14.1987H16.8222ZM12.4986 19.1395C12.4986 16.9221 14.2962 15.1244 16.5136 15.1244H29.4854C31.7028 15.1244 33.5005 16.9221 33.5005 19.1395H12.4986ZM13.1168 20.0662C11.5816 20.0662 10.3372 21.3107 10.3372 22.8459C10.3372 24.3811 11.5816 25.6255 13.1168 25.6255H32.8833C34.4185 25.6255 35.663 24.3811 35.663 22.8459C35.663 21.3107 34.4185 20.0662 32.8833 20.0662H13.1168ZM12.8073 26.8619C12.8073 29.0793 14.6049 30.8769 16.8224 30.8769H29.7942C32.0117 30.8769 33.8093 29.0793 33.8093 26.8619H12.8073ZM20.8373 35.8178C18.6199 35.8178 16.8222 34.0202 16.8222 31.8027H29.4852C29.4852 34.0202 27.6876 35.8178 25.4701 35.8178H20.8373Z" fill="#FFCD4D"/>
<path d="M16.8658 31.6433H16.6868V31.8223C16.6868 32.9347 17.1286 34.0016 17.915 34.7883C18.7014 35.575 19.768 36.0173 20.8804 36.0177H25.5144C26.0656 36.018 26.6115 35.9096 27.1208 35.6987C27.6302 35.4879 28.093 35.1787 28.4828 34.7889C28.8726 34.3991 29.1817 33.9363 29.3926 33.427C29.6034 32.9177 29.7118 32.3718 29.7116 31.8205V31.6415H16.8658V31.6433ZM25.5144 35.658H20.8804C19.8944 35.6576 18.9465 35.2772 18.2337 34.5958C17.521 33.9144 17.0984 32.9845 17.0537 31.9995H29.3411C29.2964 32.9845 28.8738 33.9144 28.161 34.5958C27.4483 35.2772 26.5004 35.6576 25.5144 35.658Z" fill="black"/>
<path d="M29.3984 14.3961V14.2171C29.3984 13.1049 28.9565 12.0382 28.1701 11.2517C27.3836 10.4653 26.3169 10.0234 25.2047 10.0234H20.8804C19.7682 10.0234 18.7015 10.4653 17.9151 11.2517C17.1286 12.0382 16.6868 13.1049 16.6868 14.2171V14.3961H29.3984ZM20.8804 10.3814H25.2047C26.1904 10.3818 27.1381 10.7619 27.8508 11.4429C28.5635 12.1239 28.9863 13.0534 29.0314 14.0381H17.0537C17.0988 13.0534 17.5217 12.1239 18.2343 11.4429C18.947 10.7619 19.8947 10.3818 20.8804 10.3814Z" fill="black"/>
<path d="M32.9333 19.9054H13.1608C12.3761 19.9054 11.6236 20.2171 11.0687 20.772C10.5139 21.3268 10.2021 22.0794 10.2021 22.864C10.2021 23.6487 10.5139 24.4013 11.0687 24.9561C11.6236 25.511 12.3761 25.8227 13.1608 25.8227H32.9333C33.718 25.8227 34.4705 25.511 35.0254 24.9561C35.5802 24.4013 35.892 23.6487 35.892 22.864C35.892 22.0794 35.5802 21.3268 35.0254 20.772C34.4705 20.2171 33.718 19.9054 32.9333 19.9054ZM32.9333 25.4647H13.1608C12.471 25.4647 11.8096 25.1907 11.3218 24.703C10.8341 24.2153 10.5601 23.5538 10.5601 22.864C10.5601 22.1743 10.8341 21.5128 11.3218 21.0251C11.8096 20.5374 12.471 20.2634 13.1608 20.2634H32.9333C33.2748 20.2634 33.613 20.3306 33.9286 20.4613C34.2441 20.592 34.5308 20.7836 34.7723 21.0251C35.0138 21.2666 35.2053 21.5533 35.336 21.8688C35.4667 22.1843 35.534 22.5225 35.534 22.864C35.534 23.2056 35.4667 23.5437 35.336 23.8593C35.2053 24.1748 35.0138 24.4615 34.7723 24.703C34.5308 24.9445 34.2441 25.136 33.9286 25.2667C33.613 25.3974 33.2748 25.4647 32.9333 25.4647Z" fill="black"/>
<path d="M33.7227 19.331V19.152C33.7212 18.0413 33.2793 16.9766 32.4937 16.1914C31.7082 15.4062 30.6433 14.9647 29.5326 14.9637H16.5579C15.4466 14.9637 14.3808 15.4048 13.5945 16.1901C12.8082 16.9754 12.3657 18.0407 12.3643 19.152V19.331H33.7227ZM16.5579 15.3217H29.5326C30.5168 15.3229 31.4629 15.7027 32.1746 16.3825C32.8864 17.0623 33.3093 17.9899 33.3557 18.973H12.7294C12.7768 17.9892 13.2007 17.0614 13.9134 16.3817C14.6262 15.7019 15.573 15.3224 16.5579 15.3217Z" fill="black"/>
<path d="M12.6721 26.7013V26.8802C12.6721 27.9925 13.114 29.0591 13.9004 29.8456C14.6869 30.6321 15.7536 31.0739 16.8658 31.0739H29.8387C30.9509 31.0739 32.0175 30.6321 32.804 29.8456C33.5905 29.0591 34.0323 27.9925 34.0323 26.8802V26.7013H12.6721ZM29.8387 30.7159H16.8658C15.8801 30.7156 14.9324 30.3354 14.2197 29.6544C13.507 28.9734 13.0842 28.0439 13.0391 27.0592H33.6654C33.6202 28.0439 33.1974 28.9734 32.4847 29.6544C31.7721 30.3354 30.8244 30.7156 29.8387 30.7159Z" fill="black"/>
</svg>

<svg xmlns="http://www.w3.org/2000/svg" width="46" height="46" fill="none" viewBox="0 0 46 46"><path fill="#83c2e9" d="M45.283 22.999C45.283 10.692 35.307.715 23 .715S.716 10.692.716 22.999 10.693 45.282 23 45.282 45.283 35.306 45.283 23"/><path fill="#ffcd4d" fill-rule="evenodd" d="M16.822 14.199a4.015 4.015 0 0 1 4.015-4.015h4.324a4.015 4.015 0 0 1 4.015 4.015zm-4.323 4.94a4.015 4.015 0 0 1 4.015-4.015h12.971a4.015 4.015 0 0 1 4.016 4.016zm.618.927a2.78 2.78 0 1 0 0 5.56h19.766a2.78 2.78 0 1 0 0-5.56zm-.31 6.796a4.015 4.015 0 0 0 4.015 4.015h12.972a4.015 4.015 0 0 0 4.015-4.015zm8.03 8.956a4.015 4.015 0 0 1-4.015-4.015h12.663a4.015 4.015 0 0 1-4.015 4.015z" clip-rule="evenodd"/><path fill="#000" d="M16.866 31.643h-.18v.18a4.195 4.195 0 0 0 4.194 4.195h4.634a4.193 4.193 0 0 0 4.198-4.198v-.178H16.866zm8.648 4.015H20.88A3.83 3.83 0 0 1 17.054 32H29.34a3.83 3.83 0 0 1-3.827 3.658M29.398 14.396v-.179a4.194 4.194 0 0 0-4.193-4.194H20.88a4.194 4.194 0 0 0-4.193 4.194v.18zm-8.518-4.015h4.325a3.83 3.83 0 0 1 3.826 3.657H17.054a3.83 3.83 0 0 1 3.826-3.657M32.933 19.905H13.161a2.959 2.959 0 1 0 0 5.918h19.772a2.959 2.959 0 1 0 0-5.918m0 5.56H13.161a2.6 2.6 0 0 1 0-5.202h19.772a2.601 2.601 0 1 1 0 5.202M33.723 19.331v-.179a4.194 4.194 0 0 0-4.19-4.188H16.558a4.194 4.194 0 0 0-4.194 4.188v.179zm-17.165-4.01h12.975a3.83 3.83 0 0 1 3.823 3.652H12.729a3.836 3.836 0 0 1 3.829-3.651M12.672 26.701v.18a4.194 4.194 0 0 0 4.194 4.193h12.973a4.193 4.193 0 0 0 4.193-4.194v-.179zm17.167 4.015H16.866a3.83 3.83 0 0 1-3.827-3.657h20.626a3.833 3.833 0 0 1-3.826 3.657"/></svg>
